web/packages/design/src/ResourceIcon/assets/aws-account.svg

<svg xmlns="http://www.w3.org/2000/svg" width="2048" height="2048" fill="none" viewBox="0 0 2048 2048"><path fill="#f7a80d" d="m957.8 1775-663.38-238-10.63-3.8V527.37l21.13 7.2L968.3 760.61l10.87 3.7V1782.7zm795.8-238-663.4 238-21.4 7.7V764.31l10.9-3.7 663.4-226.04 21.1-7.2V1533.2zM363.66 461.6 1035 272.63l9.2.18 622.6 200.72.2 30.31-622.5 211.35h-10.1L362.97 492.1z"/><path d="M0 0h2048v2048H0Z"/></svg>

<svg width="2048px" height="2048px" viewBox="0 0 2048 2048" fill="none" xmlns="http://www.w3.org/2000/svg">
  <path fill="#F7A80D" d="M957.8 1775L294.42 1537L283.79 1533.2L283.79 1522L283.79 549.69L283.79 527.37L304.92 534.57L968.3 760.61L979.17 764.31L979.17 775.73L979.17 1760L979.17 1782.7z" />
  <path fill="#F7A80D" d="M1753.6 1537L1090.2 1775L1068.8 1782.7L1068.8 1760L1068.8 775.73L1068.8 764.31L1079.7 760.61L1743.1 534.57L1764.2 527.37L1764.2 549.69L1764.2 1522L1764.2 1533.2z" />
  <path fill="#F7A80D" d="M363.66 461.6L1035 272.63L1044.2 272.81L1666.8 473.53L1667 503.84L1044.5 715.19L1034.4 715.19L362.97 492.1z" />
  <path fill="none" d="M0 0h2048v2048H0Z" />
</svg>
